X: 155
T:RIDEE 6 TEMPS N 6
M:4/4
L:1/4
Q:1/4=160
Z:Yves BELOTTEAU
K:C
% Last note suggests Mixolydian mode tune
|GAGE FGA3/2 z/2 |A3/2 z/2 GE FGA3/2 z/2 |A3/2 z/2 GA GEFG|A3/2 z/2 A3/2
 z/2 GEFG|
A3/2 z/2 A3/2 z/2 Bdc3/2 z/2 |c3/2 z/2 B3/2 z/2 AGFG|AFG3/2 z/2 Bdc3/2 z
/2 |c3/2 z/2 B3/2 z/2 AGFG|
AFG3/2|
W:
W: From "Falaleiro" http://home.t-online.de/home/pheld/homepage.htm

